public/assets/mock/objects/crotchet-yellow.svg

<svg width="22" height="38" viewBox="0 0 22 38" fill="none" xmlns="http://www.w3.org/2000/svg">
<path d="M20.7705 1.28613L20.7744 1.29004C20.8204 1.32942 20.8439 1.35587 20.8555 1.37012C20.8541 1.40318 20.8493 1.4425 20.833 1.55664C20.8175 1.66526 20.7998 1.80641 20.7998 1.98047C20.7998 2.25191 20.7949 2.38542 20.79 2.52051C20.7849 2.66243 20.7803 2.8068 20.7803 3.08984C20.7803 3.24135 20.7501 3.29092 20.6904 3.40039C20.6002 3.56588 20.4795 3.79196 20.4795 4.19043V5.29004C20.4795 5.65557 20.5601 5.86077 20.626 6.02539C20.6701 6.13573 20.7002 6.20636 20.7002 6.39062C20.7001 6.57454 20.6701 6.64464 20.626 6.75488C20.5601 6.9195 20.4795 7.12468 20.4795 7.49023C20.4795 7.86818 20.5742 8.08149 20.6494 8.24707C20.6991 8.3564 20.7295 8.41814 20.7295 8.58984C20.7295 8.7782 20.7005 8.85112 20.6582 8.96191C20.5955 9.12609 20.5195 9.32881 20.5195 9.69043C20.5196 10.0313 20.5735 10.2195 20.6201 10.3799C20.6534 10.4943 20.6797 10.5812 20.6797 10.79C20.6797 10.9988 20.6534 11.0858 20.6201 11.2002C20.5734 11.3607 20.5195 11.5496 20.5195 11.8906C20.5195 12.1364 20.5053 12.2538 20.4893 12.3809C20.4704 12.5301 20.4502 12.6911 20.4502 12.9902C20.4502 13.3143 20.4913 13.494 20.5283 13.6504C20.5563 13.7688 20.5801 13.8644 20.5801 14.0801C20.5801 14.3122 20.5622 14.4178 20.542 14.54C20.517 14.6914 20.4902 14.858 20.4902 15.1699C20.4902 15.4655 20.5033 15.6198 20.5166 15.7656C20.5283 15.8947 20.54 16.0162 20.54 16.2705C20.54 16.5576 20.5479 16.7052 20.5557 16.8477C20.5629 16.98 20.5703 17.1077 20.5703 17.3701C20.5703 17.6325 20.5629 17.7603 20.5557 17.8926C20.5479 18.0351 20.54 18.1826 20.54 18.4697V19.5703C20.54 19.8161 20.5248 19.9308 20.5088 20.0566C20.4898 20.2056 20.4697 20.3662 20.4697 20.6699C20.4697 21.0192 20.5319 21.2138 20.585 21.376C20.6218 21.4886 20.6494 21.57 20.6494 21.7705C20.6494 21.9997 20.6285 22.1017 20.6045 22.2217C20.5735 22.3764 20.54 22.5498 20.54 22.8701C20.54 23.1657 20.5541 23.32 20.5674 23.4658C20.5791 23.5947 20.5898 23.7159 20.5898 23.9697C20.5898 24.2117 20.5728 24.3238 20.5547 24.4482C20.5328 24.5987 20.5098 24.7624 20.5098 25.0703V26.1699C20.5098 26.4115 20.4952 26.5272 20.4805 26.6631C20.464 26.8155 20.4507 26.9747 20.46 27.2607L20.417 27.2773C20.451 27.4701 20.5263 27.7063 20.5586 27.832C20.5993 27.9902 20.6123 28.0966 20.6025 28.1846L20.6016 28.1963C20.5781 28.462 20.4836 28.7267 20.3564 29.0977C20.2475 29.4145 20.1399 29.7066 19.9844 29.9834C19.9205 30.0961 19.837 30.2079 19.7295 30.3408C19.6293 30.4646 19.4961 30.6217 19.377 30.7842L19.373 30.7891C19.191 31.0439 18.9787 31.2849 18.7363 31.5576L18.7344 31.5596C18.5281 31.794 18.2897 32.0327 18.0332 32.2793C17.8387 32.4661 17.7128 32.7197 17.6367 32.8613C17.5398 33.0417 17.4897 33.1153 17.4443 33.1523C17.3544 33.2257 17.2351 33.2924 17.0684 33.3789C16.9188 33.4566 16.7149 33.558 16.5391 33.6836C16.4347 33.7581 16.3075 33.8246 16.1436 33.9072C15.9917 33.9837 15.8 34.0783 15.626 34.1924C15.4151 34.3306 15.2428 34.5293 15.1318 34.6523C14.9974 34.8015 14.9217 34.8763 14.8535 34.915C14.8085 34.9406 14.7285 34.9587 14.5166 34.9824C14.3517 35.0009 14.062 35.0257 13.8066 35.1533C13.5423 35.2855 13.3475 35.5188 13.2393 35.6406C13.0969 35.8009 13.0381 35.8515 12.9941 35.8701H12.9932C12.9413 35.8923 12.8557 35.8995 12.626 35.8896C12.4512 35.8822 12.1283 35.8579 11.834 35.9756C11.5923 36.0723 11.3824 36.2287 11.2393 36.3301C11.0749 36.4465 10.9717 36.5126 10.8721 36.5459C10.7731 36.5789 10.654 36.588 10.459 36.5918C10.2878 36.5952 10.0316 36.5934 9.78125 36.6543C9.55696 36.7089 9.3493 36.7936 9.1875 36.8564C9.01409 36.9238 8.87814 36.9725 8.73926 36.998C8.50123 37.0419 8.27811 37.1272 8.11328 37.1855C7.93252 37.2496 7.80244 37.2896 7.67773 37.3027C7.56269 37.3148 7.42776 37.3001 7.23535 37.2676C7.06713 37.2392 6.82307 37.1904 6.58984 37.1904H6.30957C6.04452 37.1852 5.78316 37.1642 5.51172 37.1416H5.50781C5.14444 37.1136 4.79558 37.0577 4.45801 36.9902H4.45703C4.21708 36.9405 3.96943 36.9373 3.7998 36.9307C3.60507 36.9231 3.48697 36.9108 3.39648 36.8789H3.39551C3.08041 36.7682 2.78387 36.5957 2.46777 36.4121H2.46875C2.37636 36.356 2.289 36.2707 2.17871 36.1377C2.08644 36.0264 1.93599 35.8244 1.79004 35.6729C1.63733 35.5143 1.41134 35.3469 1.30566 35.2578C1.16713 35.141 1.10597 35.0656 1.0791 35.0029C0.954989 34.7132 0.87655 34.3414 0.859375 34.0322C0.854419 33.9424 0.874555 33.8264 0.926758 33.6484C0.970107 33.5007 1.05209 33.2642 1.09766 33.0518C1.12218 32.9445 1.17284 32.8302 1.25586 32.6748C1.33013 32.5358 1.44732 32.3348 1.53711 32.1328L1.53613 32.1318C1.64895 31.8806 1.67343 31.5862 1.69336 31.4268C1.71901 31.2217 1.74367 31.1274 1.78125 31.0684L1.78223 31.0674C1.94896 30.8042 2.17779 30.562 2.4541 30.2305L2.45605 30.2275C2.66995 29.9671 2.92589 29.7011 3.19336 29.4336L3.38281 29.2441C3.57209 29.0606 3.78031 28.8746 3.99512 28.6895C4.07968 28.617 4.19662 28.5549 4.37598 28.4678C4.53427 28.3909 4.7601 28.2865 4.95508 28.1436C5.14244 28.0062 5.307 27.8375 5.43457 27.71C5.57389 27.5706 5.68016 27.469 5.79004 27.3945C5.86563 27.3433 5.97642 27.3054 6.17578 27.252C6.34265 27.2072 6.60743 27.1436 6.83496 27.0156C7.14762 26.8398 7.4785 26.6646 7.79785 26.5098C8.03305 26.3957 8.23063 26.2192 8.3623 26.1064C8.51604 25.9749 8.61223 25.9 8.70703 25.8594L8.70996 25.8584C9.02569 25.7203 9.32508 25.5952 9.64062 25.4805C9.82097 25.4149 9.99789 25.3374 10.1494 25.2734C10.3076 25.2067 10.447 25.1502 10.585 25.1084C10.6413 25.0914 10.7227 25.0915 10.9219 25.1094C11.0815 25.1237 11.3571 25.1557 11.6279 25.084C11.8572 25.0233 12.0618 24.9158 12.2031 24.8457C12.3617 24.7671 12.4658 24.7207 12.5684 24.7002C12.7102 24.6719 12.8536 24.6583 13.0176 24.6475C13.1735 24.6371 13.3659 24.6282 13.5566 24.6064C13.7644 24.5827 13.9627 24.536 14.1191 24.501C14.286 24.4636 14.4186 24.4371 14.5488 24.4297C14.6888 24.4217 14.8357 24.4291 15.0059 24.4414C15.1621 24.4527 15.3515 24.4679 15.5352 24.4688V24.4697C15.5392 24.4698 15.5438 24.4686 15.5479 24.4688L15.5498 24.4697V24.4688C15.7415 24.4734 15.9364 24.4646 16.0908 24.459C16.2602 24.4529 16.3964 24.4519 16.5195 24.4668H16.5234C16.6363 24.4797 16.7567 24.5167 16.917 24.5742C17.06 24.6255 17.2622 24.7051 17.4629 24.749L17.4717 24.75C17.6713 24.7899 17.847 24.8042 17.9541 24.8174C18.0645 24.8309 18.1471 24.8473 18.249 24.8867L18.7383 25.0762L18.9043 24.5781C19.0005 24.2896 19.0338 24.1017 19.0234 23.8916C19.0196 23.8151 19.0072 23.7175 19.002 23.6611C18.9954 23.5913 18.9903 23.5069 18.9902 23.3906C18.9902 23.1333 18.9967 23.0078 19.0039 22.8779C19.0117 22.7378 19.0195 22.5929 19.0195 22.3105V21.2305C19.0195 21.0479 19.0496 20.9757 19.0918 20.8662C19.1536 20.7058 19.2295 20.5043 19.2295 20.1504C19.2295 19.7827 19.1383 19.5744 19.0664 19.4141C19.0196 19.3098 18.9902 19.2493 18.9902 19.0801C18.9902 18.9102 19.0198 18.8464 19.0674 18.7383C19.1384 18.577 19.2295 18.3667 19.2295 18C19.2295 17.5945 19.088 17.3645 18.9902 17.2061C18.9254 17.1009 18.8994 17.0614 18.8994 16.9297C18.8995 16.797 18.9261 16.7546 18.9922 16.6455C19.0887 16.4861 19.2294 16.2545 19.2295 15.8506C19.2295 15.4926 19.1486 15.2879 19.083 15.127C19.0386 15.018 19.0098 14.9519 19.0098 14.7803C19.0098 14.5874 19.037 14.5074 19.0723 14.3955C19.122 14.2374 19.1797 14.0471 19.1797 13.71C19.1797 13.4622 19.1887 13.3429 19.1982 13.2158C19.2088 13.0751 19.2197 12.9269 19.2197 12.6406C19.2197 12.2689 19.129 12.0605 19.0557 11.8984C19.0091 11.7957 18.9795 11.7384 18.9795 11.5703C18.9795 11.2921 18.9749 11.1527 18.9697 11.0166C18.9649 10.8877 18.96 10.7615 18.96 10.5C18.96 10.2556 18.9725 10.1405 18.9863 10.0176C19.0024 9.87402 19.0195 9.72038 19.0195 9.42969C19.0196 9.27107 19.0486 9.21355 19.0986 9.10547C19.1735 8.94381 19.2695 8.73117 19.2695 8.36035V7.29004C19.2695 6.93181 19.1886 6.72738 19.123 6.56641C19.0786 6.45742 19.0498 6.39141 19.0498 6.21973C19.0498 5.94228 19.042 5.79711 19.0342 5.65723C19.027 5.52729 19.0195 5.40239 19.0195 5.15039C19.0195 4.91934 19.0366 4.81076 19.0547 4.68848C19.0766 4.54076 19.0996 4.37902 19.0996 4.08008C19.0996 3.78984 19.0825 3.63487 19.0664 3.49023C19.0525 3.36496 19.04 3.24931 19.04 3.00977C19.0401 2.7664 19.0508 2.64816 19.0625 2.52148C19.0758 2.37837 19.0898 2.22646 19.0898 1.94043C19.0898 1.76083 19.0653 1.61908 19.0391 1.50684C19.0316 1.47478 19.0234 1.44282 19.0166 1.41699C19.0249 1.40942 19.0339 1.40003 19.0449 1.39062C19.0777 1.36266 19.1024 1.34531 19.1191 1.33398C19.2198 1.37314 19.4995 1.49023 19.8701 1.49023C20.3056 1.49016 20.623 1.30457 20.7295 1.25586C20.7399 1.26354 20.7545 1.27211 20.7705 1.28613Z" fill="#FFED23" stroke="black"/>
</svg>

<?xml version="1.0" encoding="UTF-8"?>
<svg id="_레이어_1" data-name="레이어_1" xmlns="http://www.w3.org/2000/svg" width="22" height="38" version="1.1" viewBox="0 0 22 38">
  <!-- Generator: Adobe Illustrator 29.6.1, SVG Export Plug-In . SVG Version: 2.1.1 Build 9)  -->
  <path d="M20.77,1.29h0s.07.07.08.08c0,.03,0,.07-.02.19-.02.11-.03.25-.03.42,0,.27,0,.4,0,.54,0,.14,0,.29,0,.57,0,.15-.03.2-.09.31-.09.17-.21.39-.21.79v1.1c0,.37.08.57.15.74.04.11.07.18.07.37,0,.18-.03.25-.07.36-.07.16-.15.37-.15.74s.09.59.17.76c.05.11.08.17.08.34,0,.19-.03.26-.07.37-.06.16-.14.37-.14.73,0,.34.05.53.1.69.03.11.06.2.06.41s-.03.3-.06.41c-.05.16-.1.35-.1.69,0,.25-.01.36-.03.49-.02.15-.04.31-.04.61,0,.32.04.5.08.66.03.12.05.21.05.43,0,.23-.02.34-.04.46-.02.15-.05.32-.05.63,0,.3.01.45.03.6.01.13.02.25.02.5,0,.29,0,.43.02.58,0,.13.01.26.01.52s0,.39-.01.52c0,.14-.02.29-.02.58v1.1c0,.25-.02.36-.03.49-.02.15-.04.31-.04.61,0,.35.06.54.12.71.04.11.06.19.06.39,0,.23-.02.33-.04.45-.03.15-.06.33-.06.65,0,.3.01.45.03.6.01.13.02.25.02.5s-.02.35-.04.48c-.02.15-.04.31-.04.62v1.1c0,.24-.01.36-.03.49-.02.15-.03.31-.02.6l-.04.02c.03.19.11.43.14.55.04.16.05.26.04.35h0c-.02.28-.12.54-.25.91-.11.32-.22.61-.37.89-.06.11-.15.22-.25.36-.1.12-.23.28-.35.44h0c-.18.26-.39.5-.64.77h0c-.21.24-.44.48-.7.72-.19.19-.32.44-.4.58-.1.18-.15.25-.19.29-.09.07-.21.14-.38.23-.15.08-.35.18-.53.3-.1.07-.23.14-.4.22-.15.08-.34.17-.52.29-.21.14-.38.34-.49.46-.13.15-.21.22-.28.26-.05.03-.12.04-.34.07-.16.02-.45.04-.71.17-.26.13-.46.37-.57.49-.14.16-.2.21-.25.23h0c-.05.02-.14.03-.37.02-.17,0-.5-.03-.79.09-.24.1-.45.25-.59.35-.16.12-.27.18-.37.22-.1.03-.22.04-.41.05-.17,0-.43,0-.68.06-.22.05-.43.14-.59.2-.17.07-.31.12-.45.14-.24.04-.46.13-.63.19-.18.06-.31.1-.44.12-.12.01-.25,0-.44-.04-.17-.03-.41-.08-.65-.08h-.28c-.27,0-.53-.03-.8-.05h0c-.36-.03-.71-.08-1.05-.15h0c-.24-.05-.49-.05-.66-.06-.19,0-.31-.02-.4-.05h0c-.32-.11-.61-.28-.93-.47h0c-.09-.06-.18-.14-.29-.27-.09-.11-.24-.31-.39-.46-.15-.16-.38-.33-.48-.42-.14-.12-.2-.19-.23-.25-.12-.29-.2-.66-.22-.97,0-.09.02-.21.07-.38.04-.15.13-.38.17-.6.02-.11.08-.22.16-.38.07-.14.19-.34.28-.54h0c.11-.25.14-.55.16-.71.03-.21.05-.3.09-.36h0c.17-.26.4-.51.67-.84h0c.21-.26.47-.53.74-.8l.19-.19c.19-.18.4-.37.61-.55.08-.07.2-.13.38-.22.16-.08.38-.18.58-.32.19-.14.35-.31.48-.43.14-.14.25-.24.36-.32.08-.05.19-.09.39-.14.17-.04.43-.11.66-.24.31-.18.64-.35.96-.51.24-.11.43-.29.56-.4.15-.13.25-.21.34-.25h0c.32-.14.62-.26.93-.38.18-.07.36-.14.51-.21.16-.07.3-.12.44-.16.06-.02.14-.02.34,0,.16.01.44.05.71-.03.23-.06.43-.17.58-.24.16-.08.26-.12.37-.15.14-.03.29-.04.45-.05.16-.01.35-.02.54-.04.21-.02.41-.07.56-.11.17-.04.3-.06.43-.07.14,0,.29,0,.46.01.16.01.35.03.53.03h0s0,0,.01,0h0s0,0,0,0c.19,0,.39,0,.54,0,.17,0,.31,0,.43,0h0c.11.01.23.05.39.11.14.05.35.13.55.17h0c.2.04.38.06.48.07.11.01.19.03.29.07l.49.19.17-.5c.1-.29.13-.48.12-.69,0-.08-.02-.17-.02-.23,0-.07-.01-.15-.01-.27,0-.26,0-.38.01-.51,0-.14.02-.28.02-.57v-1.08c0-.18.03-.25.07-.36.06-.16.14-.36.14-.72s-.09-.58-.16-.74c-.05-.1-.08-.16-.08-.33s.03-.23.08-.34c.07-.16.16-.37.16-.74,0-.41-.14-.64-.24-.79-.06-.11-.09-.14-.09-.28,0-.13.03-.18.09-.28.1-.16.24-.39.24-.79,0-.36-.08-.56-.15-.72-.04-.11-.07-.18-.07-.35,0-.19.03-.27.06-.38.05-.16.11-.35.11-.69,0-.25,0-.37.02-.49.01-.14.02-.29.02-.58,0-.37-.09-.58-.16-.74-.05-.1-.08-.16-.08-.33,0-.28,0-.42,0-.55,0-.13,0-.26,0-.52,0-.24.01-.36.03-.48.02-.14.03-.3.03-.59,0-.16.03-.22.08-.32.07-.16.17-.37.17-.75v-1.07c0-.36-.08-.56-.15-.72-.04-.11-.07-.18-.07-.35,0-.28,0-.42-.02-.56,0-.13-.01-.25-.01-.51,0-.23.02-.34.04-.46.02-.15.04-.31.04-.61s-.02-.45-.03-.59c-.01-.13-.03-.24-.03-.48,0-.24.01-.36.02-.49.01-.14.03-.3.03-.58,0-.18-.02-.32-.05-.43,0-.03-.02-.06-.02-.09,0,0,.02-.02.03-.03.03-.03.06-.05.07-.06.1.04.38.16.75.16.44,0,.75-.19.86-.23.01,0,.02.02.04.03Z" fill="#ff9" stroke="#000"/>
</svg>
